X:515
T:Fig for a Kiss, A
N:IrTrad, 6/99
M:9/8
L:1/8
Q:100
R:slip jig
K:EDor
G2B E2B BAG|FGA DFA AGF|G2B E2B BAG|1(3Bcd B AGF E2F:|2 (3Bcd B AGF E3|
|g2e g2e edB|f2d dcd fed|1 g2e g2e edB|dBG GBd e2f:
|2 gfe fed edB|(3Bcd B AGF E2F||
